X:170
T:Reel du r\'eprtoire des fr\`eres Pigeon
Z:robin.beech@mcgill.ca
S:Laurence Beaudry - SPTDQ
Z:220
M:2/4
L:1/16
K:D
f3gf2e2 | d2c2 B2F2 \
|: Bcdc B2F2 | Bcdc B2F2 | B3c d2B2 | c2f2 c2f2 | 
Bcdc B2F2 | Bcdc B2F2 | f3g f2e2 |1 d2c2 B2F2 :|2 d2c2 B2B2 |:
A3a a2f2 | d6B2| Affa f2d2 | A3A ABAF | G3e e2e2 | e3e eAce |1
a2g2 c2BA | f2d2 c2B2 :|2 a3g B2c2 | dfec d2F2 |]

